X: 1
T:Mrs. Mac DONALD OF DUNACH
M:C|
L:1/8
Q:80
C:William Lawrie
S:March
K:HP
|: {g}A3/4B/4|
{Gdc}d{g}A3/4B/4{Gdc}d{g}f3/4g/4|
{ag}af3/4g/4{ag}af3/4d/4|  !
{g}A{GdGe}A3/4B/4{Gdc}d{g}e3/4f/4|
{a}g3/4f/4{g}e3/4d/4{gBd}B{g}A3/4B/4|
{Gdc}d{g}A3/4B/4{Gdc}d{g}f3/4g/4|  !
{ag}af3/4d/4{g}A3/4B/4{GdG}c3/4d/4|
{gef}e{g}A3/4{d}c/4{gef}e{GdG}e3/4f/4|
{Gdc}d2{gdc}d:| |:  !
{gf}g|
{ag}a{GdG}a3/4g/4{a}f/4a3/4d/4f3/4|
{g}A{GdGe}A3/4B/4{Gdc}d{g}A3/4d/4|  !
{g}f3/4A/4{Gdc}d3/4f/4{ag}ag3/4f/4|
{gef}e3/4c/4{g}A3/4{d}c/4{gef}e{g}f3/4g/4|
a3/4g/4{afg}f3/4e/4{Gdc}d{e}A|  !
{g}B/4d3/4{gcd}c3/4B/4{g}A3/4B/4{GdG}c3/4d/4|
{gef}e{g}A3/4{d}c/4{gef}e{GdG}e3/4f/4|
{Gdc}d2{gdc}d:| |:  !
{g}f3/4e/4|
{g}d/4f3/4{g}A3/4d/4{g}d/4f3/4{g}A3/4d/4|
{g}f/4a3/4g3/4e/4{Gdc}d{g}A3/4d/4|  !
{g}d/4f3/4{g}A3/4d/4{g}d/4f3/4{g}A3/4d/4|
{g}c/4e3/4{g}A3/4{d}c/4{g}e/2g/2{a}c/4e3/4{g}d/4f3/4{g}A3/4d/4{g}d/4f3/4
{g}A3/4d/4|
{g}f/4a3/4{fg}f3/4e/4{Gdc}d{g}c3/4d/4|  !
{gef}e{g}A3/4{d}c/4{gef}e{GdG}e3/4f/4|
{Gdc}d2{gdc}d:| |:
{g}f3/4g/4|  !
a3/4f/4d/4{e}A3/4{Gdc}d{g}c3/4d/4|
a3/4f/4d/4{e}A3/4{Gdc}d{g}e3/4f/4|
{a}g3/4e/4{g}c/4{d}A3/4{g}c/4e3/4{g}A3/4{d}c/4|  !
{a}g3/4e/4{g}c/4{d}A3/4{g}c/4e3/4{g}f3/4g/4|
a3/4f/4d/4{e}A3/4{Gdc}d{g}c3/4d/4|
a3/4f/4d/4{e}A3/4{Gdc}d{g}c3/4d/4|  !
{gef}e3/4c/4{g}A3/4{d}c/4{gef}e{GdG}e3/4f/4|
{Gdc}d2{gdc}d:|
